public/img/icon_c.svg

<?xml version="1.0" encoding="UTF-8"?>
<svg xmlns="http://www.w3.org/2000/svg" xmlns:xlink="http://www.w3.org/1999/xlink" width="25px" height="25px" viewBox="0 0 25 25" version="1.1">
<g id="surface1">
<path style=" stroke:none;fill-rule:nonzero;fill:rgb(86.274511%,15.294118%,17.647059%);fill-opacity:1;" d="M 19.800781 0 L 5.199219 0 C 2.300781 0 0 2.300781 0 5.199219 L 0 19.800781 C 0 22.699219 2.300781 25 5.199219 25 L 19.800781 25 C 22.699219 25 25 22.699219 25 19.800781 L 25 5.199219 C 25 2.300781 22.699219 0 19.800781 0 Z M 12.5 17.398438 C 12 17.398438 11.5 17.398438 11.101562 17.300781 C 10.300781 17.898438 9.300781 18.5 8.5 19.101562 C 8.5 19.101562 8.300781 19.199219 8.199219 19.101562 C 8 19 8 18.898438 8 18.800781 C 8.199219 18.199219 8.398438 17.300781 8.601562 16.5 C 6.601562 15.5 5.398438 13.699219 5.398438 11.601562 C 5.398438 11 5.5 10.398438 5.800781 9.800781 C 5.800781 9.800781 5.800781 9.699219 5.800781 9.699219 C 6.800781 7.398438 9.398438 5.800781 12.601562 5.800781 C 16.601562 5.800781 19.800781 8.398438 19.800781 11.601562 C 19.601562 14.800781 16.398438 17.398438 12.5 17.398438 Z M 12.5 17.398438 "/>
</g>
</svg>

<?xml version="1.0" encoding="utf-8"?>
<!-- Generator: Adobe Illustrator 25.4.1, SVG Export Plug-In . SVG Version: 6.00 Build 0)  -->
<svg version="1.1" id="Layer_1" xmlns="http://www.w3.org/2000/svg" xmlns:xlink="http://www.w3.org/1999/xlink" x="0px" y="0px"
	 viewBox="0 0 25 25" style="enable-background:new 0 0 25 25;" xml:space="preserve">
<style type="text/css">
	.st0{fill:#DC272D;}
</style>
<path class="st0" d="M19.8,0H5.2C2.3,0,0,2.3,0,5.2v14.6C0,22.7,2.3,25,5.2,25h14.6c2.9,0,5.2-2.3,5.2-5.2V5.2C25,2.3,22.7,0,19.8,0
	z M12.5,17.4c-0.5,0-1,0-1.4-0.1c-0.8,0.6-1.8,1.2-2.6,1.8c0,0-0.2,0.1-0.3,0C8,19,8,18.9,8,18.8c0.2-0.6,0.4-1.5,0.6-2.3
	c-2-1-3.2-2.8-3.2-4.9c0-0.6,0.1-1.2,0.4-1.8c0,0,0-0.1,0-0.1c0,0,0,0,0,0c1-2.3,3.6-3.9,6.8-3.9c4,0,7.2,2.6,7.2,5.8
	C19.6,14.8,16.4,17.4,12.5,17.4z"/>
</svg>
